packages/assets/static/images/icons/wrench.svg

<svg width="24" height="24" viewBox="0 0 24 24" xmlns="http://www.w3.org/2000/svg">
<path d="M21.2592 6.46862C21.2137 6.35617 21.1416 6.25644 21.0491 6.17797C20.9566 6.09951 20.8464 6.04465 20.7281 6.0181C20.6097 5.99155 20.4867 5.99411 20.3695 6.02555C20.2524 6.05699 20.1446 6.11638 20.0554 6.19862L16.2773 9.68518L14.662 9.33831L14.3151 7.72299L17.8017 3.94487C17.8839 3.85571 17.9433 3.74793 17.9747 3.63077C18.0062 3.51362 18.0087 3.39058 17.9822 3.27222C17.9556 3.15386 17.9008 3.04371 17.8223 2.95121C17.7439 2.8587 17.6441 2.78661 17.5317 2.74112C16.5069 2.32659 15.3961 2.17007 14.2967 2.28532C13.1973 2.40058 12.143 2.78407 11.2265 3.4021C10.31 4.02014 9.55932 4.85381 9.0404 5.82985C8.52148 6.8059 8.25021 7.89445 8.25043 8.99987C8.24921 9.93332 8.44071 10.857 8.81293 11.713L3.16824 16.5936C3.15418 16.6049 3.14105 16.618 3.12793 16.6302C2.56525 17.1929 2.24915 17.956 2.24915 18.7517C2.24915 19.1458 2.32675 19.5359 2.47753 19.8999C2.62831 20.2639 2.84932 20.5947 3.12793 20.8733C3.40653 21.1519 3.73729 21.3729 4.10131 21.5237C4.46532 21.6745 4.85548 21.7521 5.24949 21.7521C6.04523 21.7521 6.80838 21.436 7.37105 20.8733C7.38324 20.8611 7.39636 20.8471 7.40761 20.8339L12.2873 15.1874C13.3152 15.6386 14.4394 15.8263 15.5582 15.7336C16.6769 15.6408 17.7548 15.2705 18.6944 14.6562C19.634 14.0418 20.4055 13.2029 20.9391 12.2152C21.4727 11.2276 21.7516 10.1224 21.7504 8.99987C21.7519 8.13229 21.5851 7.27267 21.2592 6.46862ZM15.0004 14.2499C14.1127 14.2487 13.2397 14.0229 12.4626 13.5936C12.3121 13.5105 12.1375 13.4816 11.9682 13.5118C11.7989 13.542 11.6451 13.6295 11.5326 13.7596L6.29199 19.8289C6.00839 20.0984 5.63077 20.2463 5.23963 20.2413C4.84849 20.2363 4.47477 20.0787 4.19817 19.8021C3.92157 19.5255 3.76396 19.1518 3.75895 18.7607C3.75395 18.3695 3.90193 17.9919 4.17136 17.7083L10.2361 12.4686C10.3664 12.3561 10.454 12.2021 10.4842 12.0326C10.5144 11.8631 10.4854 11.6883 10.402 11.5377C9.92389 10.673 9.69952 9.69089 9.75467 8.70435C9.80983 7.71781 10.1423 6.76686 10.7138 5.96082C11.2853 5.15479 12.0726 4.5264 12.9853 4.14788C13.898 3.76937 14.899 3.65611 15.8732 3.82112L12.9482 6.99081C12.8669 7.07909 12.8079 7.18563 12.7762 7.30146C12.7446 7.41729 12.7412 7.53903 12.7664 7.65643L13.297 10.1249C13.3273 10.266 13.3978 10.3955 13.4999 10.4976C13.602 10.5997 13.7314 10.6701 13.8726 10.7005L16.3429 11.2311C16.4603 11.2563 16.5821 11.2529 16.6979 11.2213C16.8137 11.1896 16.9203 11.1306 17.0086 11.0492L20.1782 8.12424C20.3046 8.87706 20.2655 9.64838 20.0635 10.3845C19.8616 11.1207 19.5017 11.804 19.0089 12.387C18.5162 12.97 17.9023 13.4386 17.21 13.7603C16.5178 14.0821 15.7638 14.2491 15.0004 14.2499Z"/>
</svg>

<svg viewBox="0 0 24 24" xmlns="http://www.w3.org/2000/svg" aria-hidden="true" fill="currentColor"><path d="M21.26 6.469a.75.75 0 0 0-1.205-.27l-3.778 3.486-1.615-.347-.347-1.615 3.487-3.778a.75.75 0 0 0-.27-1.204A6.75 6.75 0 0 0 8.25 9c0 .933.19 1.857.563 2.713l-5.645 4.88-.04.037a3 3 0 1 0 4.28 4.204l4.88-5.647a6.75 6.75 0 0 0 8.971-8.718M15 14.249a5.26 5.26 0 0 1-2.537-.655.75.75 0 0 0-.93.166l-5.241 6.069a1.5 1.5 0 0 1-2.12-2.12l6.064-5.24a.75.75 0 0 0 .166-.931 5.25 5.25 0 0 1 5.471-7.717l-2.925 3.17a.75.75 0 0 0-.182.665l.531 2.469a.75.75 0 0 0 .576.575l2.47.531a.75.75 0 0 0 .666-.182l3.17-2.925A5.254 5.254 0 0 1 15 14.25"/></svg>
